packages/icons/src/assets/bold.svg

<svg width="16" height="16" viewBox="0 0 16 16" fill="none" xmlns="http://www.w3.org/2000/svg"><path d="M3.29999 13.6V2.60001H8.20298C9.46256 2.60001 10.4307 2.85667 11.1073 3.37001C11.7839 3.87286 12.1222 4.56429 12.1222 5.44429C12.1222 6.04143 11.9869 6.54429 11.7163 6.95286C11.456 7.36143 11.1021 7.67572 10.6545 7.89572C10.2069 8.11572 9.7228 8.22572 9.20231 8.22572L9.48338 7.75429C10.108 7.75429 10.6597 7.86429 11.1385 8.08429C11.6174 8.30429 11.9973 8.62905 12.2784 9.05858C12.5595 9.47763 12.7 10.0014 12.7 10.63C12.7 11.5729 12.3461 12.3062 11.6382 12.83C10.9407 13.3433 9.89977 13.6 8.51527 13.6H3.29999ZM4.86145 12.3271H8.45281C9.31682 12.3271 9.97784 12.1805 10.4359 11.8871C10.8939 11.5938 11.1229 11.1329 11.1229 10.5043C11.1229 9.86524 10.8939 9.39905 10.4359 9.10572C9.97784 8.81239 9.31682 8.66572 8.45281 8.66572H4.72092V7.39286H8.06245C8.85359 7.39286 9.46776 7.2462 9.90497 6.95286C10.3422 6.65953 10.5608 6.21953 10.5608 5.63286C10.5608 5.0462 10.3422 4.6062 9.90497 4.31286C9.46776 4.01953 8.85359 3.87286 8.06245 3.87286H4.86145V12.3271Z" fill="currentColor"/></svg>

<svg xmlns="http://www.w3.org/2000/svg" width="16" height="16" viewBox="0 0 16 16"><path d="M3.3 13.6v-11h4.903q1.89 0 2.904.77 1.015.754 1.015 2.074 0 .896-.406 1.509-.39.612-1.061.943-.672.33-1.453.33l.281-.472q.938 0 1.656.33.717.33 1.14.975.42.628.421 1.571 0 1.414-1.062 2.2-1.045.77-3.123.77zm1.561-1.273h3.592q1.296 0 1.983-.44t.687-1.383q0-.959-.687-1.398-.688-.44-1.983-.44H4.72V7.393h3.341q1.188 0 1.843-.44.656-.44.656-1.32t-.656-1.32-1.843-.44h-3.2z"/></svg>
